src/assets/filled/Crop.svg

<svg width="24" height="24" viewBox="0 0 24 24"  xmlns="http://www.w3.org/2000/svg">
<path d="M5.53 2C5.11 2 4.78 2.34 4.78 2.75V4.78H2.75C2.34 4.78 2 5.11 2 5.53C2 5.95 2.34 6.28 2.75 6.28H5.53C5.94 6.28 6.28 5.94 6.28 5.53V2.75C6.28 2.34 5.94 2 5.53 2Z" />
<path d="M21.25 17.7197H18.47C18.06 17.7197 17.72 18.0597 17.72 18.4697V21.2497C17.72 21.6597 18.06 21.9997 18.47 21.9997C18.88 21.9997 19.22 21.6597 19.22 21.2497V19.2197H21.25C21.66 19.2197 22 18.8797 22 18.4697C22 18.0597 21.66 17.7197 21.25 17.7197Z" />
<path d="M16.7201 18.4703C16.7201 17.5103 17.5101 16.7203 18.4701 16.7203H19.1601V10.0503C19.1601 7.16031 16.8201 4.82031 13.9301 4.82031H7.28008V5.51031C7.28008 6.47031 6.49008 7.26031 5.53008 7.26031H4.83008V13.9303C4.83008 16.8203 7.17008 19.1603 10.0601 19.1603H16.7301V18.4703H16.7201Z" />
</svg>

<?xml version="1.0" encoding="UTF-8"?>
<svg width="24" height="24" viewBox="0 0 24 24" xmlns="http://www.w3.org/2000/svg">
 <path d="m5.53 2c-0.42 0-0.75 0.34-0.75 0.75v2.03h-2.03c-0.41 0-0.75 0.33-0.75 0.75s0.34 0.75 0.75 0.75h2.78c0.41 0 0.75-0.34 0.75-0.75v-2.78c0-0.41-0.34-0.75-0.75-0.75z"/>
 <path d="m21.25 17.72h-2.78c-0.41 0-0.75 0.34-0.75 0.75v2.78c0 0.41 0.34 0.75 0.75 0.75s0.75-0.34 0.75-0.75v-2.03h2.03c0.41 0 0.75-0.34 0.75-0.75s-0.34-0.75-0.75-0.75z"/>
 <path d="m16.72 18.47c0-0.96 0.79-1.75 1.75-1.75h0.69v-6.67c0-2.89-2.34-5.23-5.23-5.23h-6.65v0.69c0 0.96-0.79 1.75-1.75 1.75h-0.7v6.67c0 2.89 2.34 5.23 5.23 5.23h6.67v-0.69h-0.01z"/>
</svg>
